X: 26
M:6/8
L:1/8
K:D
uA|\
|:z|\
vAdd d2d | gfe fdB | gfe fdB | AFA B2A |
dfb a2a | afd a2a | gfe fdB | AFA d2:|


